X:116
T:Come Down, O Love Divine
%%stretchlast false
M:4/4
L:1/4
K:C clef=C1
"^I"[CEGc]2 "^V¹"[B,Gd] "^I"[Cce] | "^i"[G,Dcg] "^V"[G,DBg] "^IV"[F,FAa] "^viiø7²"[F,DBa] | "^I"[CEcg]4 | [CGeg]2 "^vi¹"[Cea] "^V¹"[B,Ddg] | "^vi"[A,Ecc'] "^V¹"[B,Gdb] "^vi"[DGca] "^II7"[D^Fca] | "^V"[G,GBg]2 "^I"[CEcg]2 | "^IV"[F,Fca] "^V"[G,DBg] "^IV¹"[A,Fcf] "^I"[CGce] | "^ii¹"[FAd] "^I¹"[EGc] "^ii7¹"[FAcd] "^vi"[DAce]/ "^ii7"[DAcf]/ | "^i"[G,Gcd] "^V"[G,GBd]/ "^V7"[G,FBd]/ "^I"[CEc]2 | "^vi"[Aec']2 "^iii"[EGeb] "^IV"[FAca] | "^I"[Cceg] "^iii"[EBeg] "^II¹"[^FAda] "^♭v°"[^FAca] | "^V"[GBg]4 | "^♭VII¹"[DFd^a] "^iiiø7"[EGd^a] "^IV"[FAca] "^I"[CEcg] | "^ii"[DFAf] [DFBf] "^I¹"[EGce] "^IVmaj7"[FAce] | "^V"[GBd]2 [G,GBd] "^V7³"[F,GBd] | "^I¹"[E,Gcg] "^IV"[F,Fca] "^V"[G,DBg] "^IV¹"[A,Acf]/ "^viiø7"[B,Adf]/ | "^I"[CGe] "^I¹"[EGc] "^ii7¹"[FAcd] [DFce]/ "^ii7"[DFcf]/ | "^i"[G,Gcd] "^V"[G,GBd]/ "^V7"[G,FBd]/ "^I"[CEc]2 |]
